SVG/archive.svg

<?xml version="1.0" encoding="utf-8"?>
<!-- Generated by IcoMoon.io -->
<!DOCTYPE svg PUBLIC "-//W3C//DTD SVG 1.1//EN" "http://www.w3.org/Graphics/SVG/1.1/DTD/svg11.dtd">
<svg version="1.1" xmlns="http://www.w3.org/2000/svg" xmlns:xlink="http://www.w3.org/1999/xlink" width="14" height="14" viewBox="0 0 14 14">
<path fill="#444444" d="M8.5 6.5q0-0.203-0.148-0.352t-0.352-0.148h-2q-0.203 0-0.352 0.148t-0.148 0.352 0.148 0.352 0.352 0.148h2q0.203 0 0.352-0.148t0.148-0.352zM13 5v7.5q0 0.203-0.148 0.352t-0.352 0.148h-11q-0.203 0-0.352-0.148t-0.148-0.352v-7.5q0-0.203 0.148-0.352t0.352-0.148h11q0.203 0 0.352 0.148t0.148 0.352zM13.5 1.5v2q0 0.203-0.148 0.352t-0.352 0.148h-12q-0.203 0-0.352-0.148t-0.148-0.352v-2q0-0.203 0.148-0.352t0.352-0.148h12q0.203 0 0.352 0.148t0.148 0.352z"></path>
</svg>

<svg xmlns="http://www.w3.org/2000/svg" viewBox="0 0 14 14"><path d="M8.5 6.5q0-.203-.148-.352T8 6H6q-.203 0-.352.148T5.5 6.5t.148.352T6 7h2q.203 0 .352-.148T8.5 6.5zM13 5v7.5q0 .203-.148.352T12.5 13h-11q-.203 0-.352-.148T1 12.5V5q0-.203.148-.352T1.5 4.5h11q.203 0 .352.148T13 5zm.5-3.5v2q0 .203-.148.352T13 4H1q-.203 0-.352-.148T.5 3.5v-2q0-.203.148-.352T1 1h12q.203 0 .352.148t.148.352z" /></svg>
